; generated by PrusaSlicer 2.6.1+win64 on 2024-06-07 at 05:34:57 UTC

; 

; external perimeters extrusion width = 0.45mm
; perimeters extrusion width = 0.45mm
; infill extrusion width = 0.45mm
; solid infill extrusion width = 0.45mm
; top infill extrusion width = 0.40mm
; support material extrusion width = 0.35mm
; first layer extrusion width = 0.42mm

; external perimeters extrusion width = 0.45mm
; perimeters extrusion width = 0.45mm
; infill extrusion width = 0.45mm
; solid infill extrusion width = 0.45mm
; top infill extrusion width = 0.40mm
; support material extrusion width = 0.35mm
; first layer extrusion width = 0.42mm

M190 S60 ; set bed temperature and wait for it to be reached
M104 S215 ; set temperature
;TYPE:Custom
G28 ; home all axes
G1 Z5 F5000 ; lift nozzle
M109 S215 ; set temperature and wait for it to be reached
G21 ; set units to millimeters
G90 ; use absolute coordinates
M82 ; use absolute distances for extrusion
G92 E0
; Filament gcode
M107
;LAYER_CHANGE
;Z:0.35
;HEIGHT:0.35
G1 Z.35 F7800
G1 E-2 F2400
G92 E0
G1 X170.082 Y95.018 F7800
G1 E2 F2400
;TYPE:Skirt/Brim
;WIDTH:0.42
G1 F1800
G1 X170.965 Y93.716 E2.07895
G1 X172.419 Y92.239 E2.18297
G1 X173.736 Y91.319 E2.26359
G1 X175.122 Y90.647 E2.34089
G1 X176.228 Y90.282 E2.39934
G1 X178.154 Y89.97 E2.49726
G1 X223.349 Y89.963 E4.76541
G1 X224.822 Y90.156 E4.83997
G1 X226.416 Y90.623 E4.92333
G1 X227.754 Y91.261 E4.99772
G1 X229.059 Y92.146 E5.07685
G1 X230.573 Y93.644 E5.18374
G1 X231.468 Y94.938 E5.2627
G1 X232.149 Y96.357 E5.34169
G1 X232.489 Y97.401 E5.39679
G1 X241.766 Y135.919 E7.38513
G1 X241.939 Y137.009 E7.44052
G1 X242.035 Y138.5 E7.5155
G1 X242.013 Y162.052 E8.69748
G1 X241.766 Y164.081 E8.80006
G1 X241.206 Y166.046 E8.9026
G1 X240.344 Y167.9 E9.00521
G1 X239.203 Y169.595 E9.10775
G1 X238.592 Y170.311 E9.15499
G1 X237.095 Y171.703 E9.25758
G1 X236.202 Y172.352 E9.31298
G1 X234.416 Y173.345 E9.41553
G1 X232.496 Y174.047 E9.51813
G1 X231.581 Y174.266 E9.56535
G1 X230.491 Y174.439 E9.62074
G1 X229 Y174.535 E9.69572
G1 X170.448 Y174.513 E12.63421
G1 X168.419 Y174.266 E12.73679
G1 X166.454 Y173.706 E12.83933
G1 X164.6 Y172.844 E12.94194
G1 X162.905 Y171.703 E13.04448
G1 X162.189 Y171.092 E13.09172
G1 X160.832 Y169.637 E13.19157
G1 X159.656 Y167.899 E13.29688
G1 X158.794 Y166.046 E13.39944
G1 X158.453 Y164.996 E13.45484
G1 X158.061 Y162.991 E13.55737
G1 X157.965 Y161.5 E13.63235
G1 X157.965 Y138.5 E14.78663
G1 X158.061 Y137.009 E14.86161
G1 X158.525 Y134.729 E14.97838
G1 X169.175 Y97.131 E16.93951
G1 X169.614 Y95.947 E17.00288
G1 X170.055 Y95.072 E17.05205
G1 X170.362 Y95.227 F7800
G1 F1800
G1 X171.229 Y93.938 E17.13001
G1 X172.645 Y92.499 E17.23133
G1 X173.916 Y91.613 E17.30908
G1 X175.257 Y90.964 E17.38385
G1 X176.308 Y90.618 E17.43938
G1 X178.184 Y90.314 E17.53476
G1 X223.322 Y90.307 E19.80005
G1 X224.744 Y90.492 E19.87202
G1 X226.284 Y90.942 E19.95254
G1 X227.577 Y91.557 E20.0244
G1 X228.837 Y92.41 E20.10076
G1 X230.311 Y93.868 E20.20481
G1 X231.174 Y95.118 E20.28104
G1 X231.831 Y96.489 E20.35734
G1 X232.154 Y97.482 E20.40974
G1 X241.431 Y136 E22.39808
G1 X241.595 Y137.037 E22.45077
G1 X241.69 Y138.5 E22.52435
G1 X241.669 Y162.025 E23.70497
G1 X241.431 Y164 E23.8048
G1 X240.887 Y165.914 E23.90466
G1 X240.05 Y167.719 E24.00451
G1 X238.941 Y169.371 E24.10437
G1 X238.33 Y170.087 E24.15161
G1 X236.871 Y171.441 E24.2515
G1 X236.022 Y172.058 E24.30417
G1 X234.284 Y173.027 E24.40403
G1 X232.416 Y173.711 E24.50386
G1 X231.5 Y173.931 E24.55114
G1 X230.464 Y174.095 E24.60378
G1 X229 Y174.19 E24.67741
G1 X170.475 Y174.169 E27.61454
G1 X168.5 Y173.931 E27.71437
G1 X166.586 Y173.387 E27.81423
G1 X164.781 Y172.55 E27.91408
G1 X163.129 Y171.441 E28.01394
G1 X162.413 Y170.83 E28.06118
G1 X161.095 Y169.413 E28.1583
G1 X159.95 Y167.719 E28.26091
G1 X159.113 Y165.914 E28.36076
G1 X158.789 Y164.916 E28.41342
G1 X158.405 Y162.964 E28.51326
G1 X158.31 Y161.5 E28.58689
G1 X158.31 Y138.5 E29.74117
G1 X158.405 Y137.036 E29.8148
G1 X158.857 Y134.823 E29.92815
G1 X169.507 Y97.225 E31.88928
G1 X169.933 Y96.079 E31.95064
G1 X170.335 Y95.28 E31.99553
G1 X170.642 Y95.435 F7800
G1 F1800
G1 X171.493 Y94.159 E32.0725
G1 X172.871 Y92.76 E32.17105
G1 X174.096 Y91.907 E32.24596
G1 X175.391 Y91.282 E32.31812
G1 X176.389 Y90.953 E32.37086
G1 X178.214 Y90.657 E32.46365
G1 X223.295 Y90.65 E34.72608
G1 X224.667 Y90.828 E34.79551
G1 X226.152 Y91.261 E34.87314
G1 X227.399 Y91.852 E34.94239
G1 X228.616 Y92.674 E35.01609
G1 X230.049 Y94.092 E35.11726
G1 X230.88 Y95.299 E35.1908
G1 X231.512 Y96.621 E35.26434
G1 X231.819 Y97.563 E35.31406
G1 X241.096 Y136.08 E37.30235
G1 X241.251 Y137.064 E37.35234
G1 X241.345 Y138.5 E37.42456
G1 X241.325 Y161.998 E38.60383
G1 X241.096 Y163.92 E38.70097
G1 X240.568 Y165.782 E38.7981
G1 X239.756 Y167.539 E38.89524
G1 X238.679 Y169.147 E38.99237
G1 X238.067 Y169.863 E39.03964
G1 X236.647 Y171.179 E39.1368
G1 X235.842 Y171.764 E39.18674
G1 X234.152 Y172.708 E39.28389
G1 X232.335 Y173.376 E39.38104
G1 X231.42 Y173.596 E39.42827
G1 X230.436 Y173.751 E39.47826
G1 X229 Y173.845 E39.55048
G1 X170.502 Y173.825 E42.48626
G1 X168.58 Y173.596 E42.5834
G1 X166.718 Y173.068 E42.68053
G1 X164.961 Y172.256 E42.77767
G1 X163.353 Y171.179 E42.8748
G1 X162.637 Y170.567 E42.92207
G1 X161.357 Y169.189 E43.01646
G1 X160.244 Y167.539 E43.11634
G1 X159.432 Y165.782 E43.21348
G1 X159.124 Y164.835 E43.26346
G1 X158.749 Y162.936 E43.3606
G1 X158.655 Y161.5 E43.43282
G1 X158.655 Y138.5 E44.5871
G1 X158.749 Y137.063 E44.65937
G1 X159.189 Y134.917 E44.76931
G1 X169.839 Y97.319 E46.73044
G1 X170.251 Y96.211 E46.78977
G1 X170.615 Y95.489 E46.83035
G1 E44.83035 F2400
G92 E0
G1 X233.121 Y164.499 F7800
G1 E2 F2400
;TYPE:Perimeter
;WIDTH:0.42
G1 F1800
G1 X232.604 Y165.104 E2.03994
G1 X231.996 Y165.624 E2.08009
G1 X231.314 Y166.042 E2.12023
G1 X230.575 Y166.348 E2.16037
G1 X229.797 Y166.535 E2.20053
G1 X228.965 Y166.6 E2.24241
G1 X171.035 Y166.6 E5.14968
G1 X170.203 Y166.535 E5.19156
G1 X169.425 Y166.348 E5.23172
G1 X168.686 Y166.042 E5.27186
G1 X168.047 Y165.651 E5.30946
G1 X167.393 Y165.101 E5.35235
G1 X166.876 Y164.496 E5.39229
G1 X166.458 Y163.814 E5.43243
G1 X166.152 Y163.075 E5.47257
G1 X165.965 Y162.297 E5.51273
G1 X165.9 Y161.465 E5.55461
G1 X165.9 Y138.535 E6.70537
G1 X165.965 Y137.703 E6.74725
G1 X166.152 Y136.925 E6.78741
G1 X166.439 Y136.233 E6.82501
G1 X166.879 Y135.501 E6.86787
G1 X167.396 Y134.896 E6.90781
G1 X167.965 Y134.409 E6.9454
G1 X168.689 Y133.957 E6.98823
G1 X169.425 Y133.652 E7.02821
G1 X170.203 Y133.465 E7.06837
G1 X171.035 Y133.4 E7.11025
G1 X228.965 Y133.4 E10.01752
G1 X229.747 Y133.461 E10.05688
G1 X230.579 Y133.654 E10.09974
G1 X231.314 Y133.958 E10.13966
G1 X231.996 Y134.376 E10.1798
G1 X232.604 Y134.896 E10.21995
G1 X233.124 Y135.504 E10.2601
G1 X233.542 Y136.186 E10.30024
G1 X233.848 Y136.925 E10.34038
G1 X234.035 Y137.703 E10.38054
G1 X234.069 Y138.133 E10.40219
G1 X234.1 Y138.745 E10.43294
G1 X234.1 Y161.465 E11.57316
G1 X234.035 Y162.297 E11.61504
G1 X233.848 Y163.075 E11.6552
G1 X233.561 Y163.767 E11.6928
G1 X233.152 Y164.448 E11.73267
G1 X233.402 Y164.701 F7800
G1 F1800
G1 X232.849 Y165.349 E11.77542
G1 X232.2 Y165.904 E11.81828
G1 X231.471 Y166.35 E11.86117
G1 X230.682 Y166.677 E11.90403
G1 X229.852 Y166.876 E11.94686
G1 X228.978 Y166.945 E11.99086
G1 X171.022 Y166.945 E14.89943
G1 X170.148 Y166.876 E14.94343
G1 X169.318 Y166.677 E14.98626
G1 X168.529 Y166.35 E15.02912
G1 X167.845 Y165.931 E15.06938
G1 X167.149 Y165.347 E15.11498
G1 X166.596 Y164.7 E15.15769
G1 X166.15 Y163.971 E15.20058
G1 X165.823 Y163.182 E15.24344
G1 X165.624 Y162.352 E15.28627
G1 X165.555 Y161.478 E15.33027
G1 X165.555 Y138.522 E16.48234
G1 X165.624 Y137.648 E16.52634
G1 X165.823 Y136.818 E16.56917
G1 X166.13 Y136.077 E16.60942
G1 X166.598 Y135.299 E16.65498
G1 X167.151 Y134.651 E16.69773
G1 X167.761 Y134.13 E16.73799
G1 X168.531 Y133.649 E16.78355
G1 X169.318 Y133.323 E16.8263
G1 X170.148 Y133.124 E16.86913
G1 X171.022 Y133.055 E16.91313
G1 X228.978 Y133.055 E19.8217
G1 X229.799 Y133.12 E19.86303
G1 X230.684 Y133.324 E19.90861
G1 X231.471 Y133.65 E19.95136
G1 X232.2 Y134.096 E19.99425
G1 X232.849 Y134.651 E20.03711
G1 X233.404 Y135.3 E20.07997
G1 X233.85 Y136.029 E20.12286
G1 X234.177 Y136.818 E20.16572
G1 X234.376 Y137.648 E20.20855
G1 X234.412 Y138.106 E20.23161
G1 X234.445 Y138.745 E20.26372
G1 X234.445 Y161.478 E21.4046
G1 X234.376 Y162.352 E21.4486
G1 X234.177 Y163.182 E21.49143
G1 X233.87 Y163.923 E21.53168
G1 X233.433 Y164.65 E21.57425
G1 X233.683 Y164.904 F7800
;TYPE:External perimeter
G1 F1800
G1 X233.094 Y165.594 E21.61978
G1 X232.403 Y166.184 E21.66538
G1 X231.628 Y166.658 E21.71097
G1 X230.789 Y167.006 E21.75655
G1 X229.906 Y167.218 E21.80212
G1 X228.992 Y167.29 E21.84813
G1 X171.008 Y167.29 E24.75811
G1 X170.094 Y167.218 E24.80412
G1 X169.211 Y167.006 E24.84969
G1 X168.372 Y166.658 E24.89527
G1 X167.643 Y166.212 E24.93816
G1 X166.906 Y165.593 E24.98646
G1 X166.316 Y164.903 E25.03202
G1 X165.842 Y164.128 E25.07761
G1 X165.494 Y163.289 E25.12319
G1 X165.282 Y162.406 E25.16876
G1 X165.21 Y161.492 E25.21477
G1 X165.21 Y138.508 E26.36824
G1 X165.282 Y137.594 E26.41425
G1 X165.494 Y136.711 E26.45982
G1 X165.821 Y135.922 E26.50268
G1 X166.317 Y135.096 E26.55103
G1 X166.906 Y134.406 E26.59656
G1 X167.556 Y133.851 E26.63945
G1 X168.373 Y133.341 E26.68778
G1 X169.211 Y132.994 E26.7333
G1 X170.094 Y132.782 E26.77887
G1 X171.008 Y132.71 E26.82488
G1 X228.992 Y132.71 E29.73486
G1 X229.852 Y132.778 E29.77815
G1 X230.79 Y132.994 E29.82646
G1 X231.628 Y133.342 E29.872
G1 X232.403 Y133.816 E29.91759
G1 X233.094 Y134.406 E29.96319
G1 X233.684 Y135.097 E30.00879
G1 X234.158 Y135.872 E30.05438
G1 X234.506 Y136.711 E30.09996
G1 X234.718 Y137.594 E30.14553
G1 X234.756 Y138.079 E30.16994
G1 X234.79 Y138.745 E30.20341
G1 X234.79 Y161.492 E31.34499
G1 X234.718 Y162.406 E31.391
G1 X234.506 Y163.289 E31.43657
G1 X234.179 Y164.078 E31.47943
G1 X233.714 Y164.852 E31.52474
G1 X233.285 Y164.862 F7800
G1 E29.52474 F2400
G92 E0
G1 X230.649 Y133.795 F7800
G1 E2 F2400
;TYPE:Solid infill
;WIDTH:0.420224
G1 F1800
G1 X233.419 Y136.564 E2.19669
G1 X233.601 Y137.005 E2.22065
G1 X233.674 Y137.307 E2.23625
G1 X230.197 Y133.831 E2.48315
G1 X229.707 Y133.718 E2.5084
G1 X229.586 Y133.708 E2.5145
G1 X233.792 Y137.914 E2.81321
G1 X233.834 Y138.443 E2.83986
G1 X229.057 Y133.666 E3.17912
G1 X228.561 Y133.658 E3.20403
G1 X233.842 Y138.939 E3.57908
G1 X233.842 Y139.427 E3.60359
G1 X228.073 Y133.658 E4.0133
G1 X227.584 Y133.658 E4.03786
G1 X233.842 Y139.916 E4.4823
G1 X233.842 Y140.404 E4.50681
G1 X227.096 Y133.658 E4.98591
G1 X226.608 Y133.658 E5.01042
G1 X233.842 Y140.892 E5.52418
G1 X233.842 Y141.38 E5.54869
G1 X226.12 Y133.658 E6.0971
G1 X225.632 Y133.658 E6.12161
G1 X233.842 Y141.868 E6.70468
G1 X233.842 Y142.356 E6.72919
G1 X225.144 Y133.658 E7.34692
G1 X224.656 Y133.658 E7.37143
G1 X233.842 Y142.844 E8.02382
G1 X233.842 Y143.332 E8.04833
G1 X224.168 Y133.658 E8.73537
G1 X223.68 Y133.658 E8.75988
G1 X233.842 Y143.82 E9.48158
G1 X233.842 Y144.308 E9.50609
G1 X223.192 Y133.658 E10.26245
G1 X222.704 Y133.658 E10.28696
G1 X233.842 Y144.796 E11.07798
G1 X233.842 Y145.284 E11.10249
G1 X222.216 Y133.658 E11.92816
G1 X221.728 Y133.658 E11.95267
G1 X233.842 Y145.772 E12.813
G1 X233.842 Y146.26 E12.83751
G1 X221.24 Y133.658 E13.7325
G1 X220.752 Y133.658 E13.75701
G1 X233.842 Y146.748 E14.68666
G1 X233.842 Y147.236 E14.71117
G1 X220.264 Y133.658 E15.67547
G1 X219.775 Y133.658 E15.70003
G1 X233.842 Y147.725 E16.69906
G1 X233.842 Y148.213 E16.72357
G1 X219.287 Y133.658 E17.75726
G1 X218.799 Y133.658 E17.78177
G1 X233.842 Y148.701 E18.85012
G1 X233.842 Y149.189 E18.87463
G1 X218.311 Y133.658 E19.97764
G1 X217.823 Y133.658 E20.00215
G1 X233.842 Y149.677 E21.13981
G1 X233.842 Y150.165 E21.16432
G1 X217.335 Y133.658 E22.33664
G1 X216.847 Y133.658 E22.36115
G1 X233.842 Y150.653 E23.56813
G1 X233.842 Y151.141 E23.59264
G1 X216.359 Y133.658 E24.83428
G1 X215.871 Y133.658 E24.85879
G1 X233.842 Y151.629 E26.13508
G1 X233.842 Y152.117 E26.15959
G1 X215.383 Y133.658 E27.47054
G1 X214.895 Y133.658 E27.49505
G1 X233.842 Y152.605 E28.84066
G1 X233.842 Y153.093 E28.86517
G1 X214.407 Y133.658 E30.24544
G1 X213.919 Y133.658 E30.26995
G1 X233.842 Y153.581 E31.68487
G1 X233.842 Y154.069 E31.70938
G1 X213.431 Y133.658 E33.15896
G1 X212.943 Y133.658 E33.18347
G1 X233.842 Y154.557 E34.66771
G1 X233.842 Y155.046 E34.69227
G1 X212.454 Y133.658 E36.21124
G1 X211.966 Y133.658 E36.23575
G1 X233.842 Y155.534 E37.78938
G1 X233.842 Y156.022 E37.81389
G1 X211.478 Y133.658 E39.40217
G1 X210.99 Y133.658 E39.42668
G1 X233.842 Y156.51 E41.04962
G1 X233.842 Y156.998 E41.07413
G1 X210.502 Y133.658 E42.73173
G1 X210.014 Y133.658 E42.75624
G1 X233.842 Y157.486 E44.4485
G1 X233.842 Y157.974 E44.47301
G1 X209.526 Y133.658 E46.19992
G1 X209.038 Y133.658 E46.22443
G1 X233.842 Y158.462 E47.986
G1 X233.842 Y158.95 E48.01051
G1 X208.55 Y133.658 E49.80674
G1 X208.062 Y133.658 E49.83125
G1 X233.842 Y159.438 E51.66214
G1 X233.842 Y159.926 E51.68665
G1 X207.574 Y133.658 E53.55219
G1 X207.086 Y133.658 E53.5767
G1 X233.842 Y160.414 E55.4769
G1 X233.842 Y160.902 E55.50141
G1 X206.598 Y133.658 E57.43627
G1 X206.11 Y133.658 E57.46078
G1 X233.842 Y161.39 E59.4303
G1 X233.811 Y161.847 E59.4533
G1 X205.622 Y133.658 E61.45527
G1 X205.134 Y133.658 E61.47978
G1 X233.769 Y162.294 E63.51346
G1 X233.675 Y162.688 E63.5338
G1 X204.645 Y133.658 E65.5955
G1 X204.157 Y133.658 E65.62001
G1 X233.57 Y163.071 E67.70891
G1 X233.427 Y163.416 E67.72766
G1 X203.669 Y133.658 E69.84106
G1 X203.181 Y133.658 E69.86557
G1 X233.271 Y163.748 E72.00255
G1 X233.088 Y164.053 E72.02041
G1 X202.693 Y133.658 E74.17905
G1 X202.205 Y133.658 E74.20356
G1 X232.903 Y164.356 E76.38372
G1 X232.678 Y164.62 E76.40114
G1 X201.717 Y133.658 E78.60001
G1 X201.229 Y133.658 E78.62452
G1 X232.453 Y164.883 E80.84207
G1 X232.196 Y165.113 E80.85939
G1 X200.741 Y133.658 E83.09331
G1 X200.253 Y133.658 E83.11782
G1 X231.933 Y165.338 E85.36772
G1 X231.643 Y165.537 E85.38538
G1 X199.765 Y133.658 E87.64938
G1 X199.277 Y133.658 E87.67389
G1 X231.341 Y165.722 E89.95106
G1 X231.196 Y165.811 E89.9596
G1 X231.016 Y165.885 E89.96937
G1 X198.789 Y133.658 E92.25812
G1 X198.301 Y133.658 E92.28263
G1 X230.671 Y166.028 E94.58154
G1 X230.495 Y166.101 E94.59111
G1 X230.302 Y166.148 E94.60109
G1 X197.813 Y133.658 E96.90848
G1 X197.325 Y133.658 E96.93299
G1 X229.908 Y166.242 E99.24706
G1 X229.757 Y166.278 E99.25486
G1 X229.478 Y166.3 E99.26891
G1 X196.836 Y133.658 E101.58713
G1 X196.348 Y133.658 E101.61164
G1 X229.026 Y166.336 E103.93242
G1 X228.954 Y166.342 E103.93605
G1 X228.543 Y166.342 E103.95669
G1 X195.86 Y133.658 E106.27786
G1 X195.372 Y133.658 E106.30237
G1 X228.055 Y166.342 E108.62354
G1 X227.567 Y166.342 E108.64805
G1 X194.884 Y133.658 E110.96922
G1 X194.396 Y133.658 E110.99373
G1 X227.079 Y166.342 E113.3149
G1 X226.591 Y166.342 E113.33941
G1 X193.908 Y133.658 E115.66058
G1 X193.42 Y133.658 E115.68509
G1 X226.103 Y166.342 E118.00626
G1 X225.615 Y166.342 E118.03077
G1 X192.932 Y133.658 E120.35194
G1 X192.444 Y133.658 E120.37645
G1 X225.127 Y166.342 E122.69762
G1 X224.639 Y166.342 E122.72213
G1 X191.956 Y133.658 E125.0433
G1 X191.468 Y133.658 E125.06781
G1 X224.151 Y166.342 E127.38898
G1 X223.663 Y166.342 E127.41349
G1 X190.98 Y133.658 E129.73466
G1 X190.492 Y133.658 E129.75917
G1 X223.175 Y166.342 E132.08034
G1 X222.687 Y166.342 E132.10485
G1 X190.004 Y133.658 E134.42602
G1 X189.516 Y133.658 E134.45053
G1 X222.199 Y166.342 E136.7717
G1 X221.711 Y166.342 E136.79621
G1 X189.027 Y133.658 E139.11742
G1 X188.539 Y133.658 E139.14193
G1 X221.222 Y166.342 E141.4631
G1 X220.734 Y166.342 E141.48761
G1 X188.051 Y133.658 E143.80878
G1 X187.563 Y133.658 E143.83329
G1 X220.246 Y166.342 E146.15446
G1 X219.758 Y166.342 E146.17897
G1 X187.075 Y133.658 E148.50014
G1 X186.587 Y133.658 E148.52465
G1 X219.27 Y166.342 E150.84582
G1 X218.782 Y166.342 E150.87033
G1 X186.099 Y133.658 E153.1915
G1 X185.611 Y133.658 E153.21601
G1 X218.294 Y166.342 E155.53718
G1 X217.806 Y166.342 E155.56169
G1 X185.123 Y133.658 E157.88286
