; generated by PrusaSlicer 2.6.1+win64 on 2024-06-07 at 05:41:06 UTC

; 

; external perimeters extrusion width = 0.45mm
; perimeters extrusion width = 0.45mm
; infill extrusion width = 0.45mm
; solid infill extrusion width = 0.45mm
; top infill extrusion width = 0.40mm
; support material extrusion width = 0.35mm
; first layer extrusion width = 0.42mm

M190 S60 ; set bed temperature and wait for it to be reached
M104 S215 ; set temperature
;TYPE:Custom
G28 ; home all axes
G1 Z5 F5000 ; lift nozzle
M109 S215 ; set temperature and wait for it to be reached
G21 ; set units to millimeters
G90 ; use absolute coordinates
M82 ; use absolute distances for extrusion
G92 E0
; Filament gcode
M107
;LAYER_CHANGE
;Z:0.35
;HEIGHT:0.35
G1 Z.35 F7800
G1 E-2 F2400
G92 E0
G1 X79.252 Y131.53 F7800
G1 E2 F2400
;TYPE:Skirt/Brim
;WIDTH:0.42
G1 F1800
G1 X191.369 Y63.975 E8.56916
G1 X193.57 Y63.112 E8.68781
G1 X195 Y62.965 E8.75995
G1 X205 Y62.965 E9.26181
G1 X207.33 Y63.362 E9.38043
G1 X208.631 Y63.975 E9.45261
G1 X333.103 Y138.975 E16.74569
G1 X334.894 Y140.517 E16.8643
G1 X336.073 Y142.566 E16.98294
G1 X336.507 Y145 E17.10702
G1 X336.507 Y155 E17.60888
G1 X336.11 Y157.33 E17.7275
G1 X334.964 Y159.397 E17.84611
G1 X333.103 Y161.025 E17.9702
G1 X208.631 Y236.025 E25.26328
G1 X206.43 Y236.888 E25.38193
G1 X205 Y237.035 E25.45407
G1 X195 Y237.035 E25.95593
G1 X192.67 Y236.638 E26.07455
G1 X191.369 Y236.025 E26.14673
G1 X66.897 Y161.025 E33.43981
G1 X65.106 Y159.483 E33.55842
G1 X63.927 Y157.434 E33.67706
G1 X63.493 Y155 E33.80114
G1 X63.493 Y145 E34.303
G1 X63.89 Y142.67 E34.42162
G1 X65.036 Y140.603 E34.54023
G1 X66.897 Y138.975 E34.66432
G1 X79.201 Y131.561 E35.38525
G1 X79.379 Y131.856 F7800
G1 F1800
G1 X191.547 Y64.27 E41.95741
G1 X193.697 Y63.438 E42.07311
G1 X195 Y63.31 E42.13882
G1 X205 Y63.31 E42.64068
G1 X207.27 Y63.707 E42.75633
G1 X208.453 Y64.27 E42.82208
G1 X332.925 Y139.27 E50.11516
G1 X334.665 Y140.782 E50.23085
G1 X335.788 Y142.794 E50.34649
G1 X336.163 Y145 E50.45879
G1 X336.163 Y155 E50.96065
G1 X335.766 Y157.27 E51.0763
G1 X334.622 Y159.271 E51.19198
G1 X332.925 Y160.73 E51.30429
G1 X208.453 Y235.73 E58.59737
G1 X206.303 Y236.562 E58.71307
G1 X205 Y236.69 E58.77878
G1 X195 Y236.69 E59.28064
G1 X192.73 Y236.293 E59.39629
G1 X191.547 Y235.73 E59.46204
G1 X67.075 Y160.73 E66.75512
G1 X65.335 Y159.218 E66.87081
G1 X64.212 Y157.206 E66.98645
G1 X63.837 Y155 E67.09875
G1 X63.837 Y145 E67.60061
G1 X64.234 Y142.73 E67.71626
G1 X65.378 Y140.729 E67.83194
G1 X67.075 Y139.27 E67.94425
G1 X79.327 Y131.887 E68.66214
G1 X79.505 Y132.183 F7800
G1 F1800
G1 X191.725 Y64.565 E75.23736
G1 X193.822 Y63.765 E75.35
G1 X195 Y63.655 E75.40938
G1 X205 Y63.655 E75.91124
G1 X207.209 Y64.052 E76.02388
G1 X208.275 Y64.565 E76.08325
G1 X332.747 Y139.565 E83.37633
G1 X334.434 Y141.045 E83.48896
G1 X335.501 Y143.02 E83.60162
G1 X335.818 Y145 E83.70225
G1 X335.818 Y155 E84.20411
G1 X335.421 Y157.209 E84.31675
G1 X334.28 Y159.141 E84.42936
G1 X332.747 Y160.435 E84.53004
G1 X208.275 Y235.435 E91.82312
G1 X206.178 Y236.235 E91.93576
G1 X205 Y236.345 E91.99514
G1 X195 Y236.345 E92.497
G1 X192.791 Y235.948 E92.60964
G1 X191.725 Y235.435 E92.66901
G1 X67.253 Y160.435 E99.96209
G1 X65.566 Y158.955 E100.07472
G1 X64.499 Y156.98 E100.18738
G1 X64.182 Y155 E100.28801
G1 X64.182 Y145 E100.78987
G1 X64.579 Y142.791 E100.90251
G1 X65.72 Y140.859 E101.01512
G1 X67.253 Y139.565 E101.1158
G1 X79.454 Y132.214 E101.83067
G1 E99.83067 F2400
G92 E0
G1 X195.9 Y229.1 F7800
G1 E2 F2400
;TYPE:Perimeter
;WIDTH:0.42
G1 F1800
G1 X195.897 Y164.931 E5.22038
G1 X195.752 Y163.228 E5.30616
G1 X195.385 Y161.697 E5.38517
G1 X194.643 Y159.934 E5.48116
G1 X193.776 Y158.54 E5.56355
G1 X192.753 Y157.342 E5.64261
G1 X191.35 Y156.144 E5.7352
G1 X189.887 Y155.26 E5.82098
G1 X188.303 Y154.615 E5.90681
G1 X186.638 Y154.226 E5.99262
G1 X185.001 Y154.1 E6.07502
G1 X71.427 Y154.1 E11.77483
G1 X71.427 Y145.9 E12.18635
G1 X185.001 Y145.9 E17.88616
G1 X186.638 Y145.774 E17.96856
G1 X188.303 Y145.385 E18.05437
G1 X190.008 Y144.679 E18.14698
G1 X191.35 Y143.856 E18.22599
G1 X192.658 Y142.753 E18.31186
G1 X193.856 Y141.351 E18.40441
G1 X194.74 Y139.887 E18.49024
G1 X195.343 Y138.432 E18.56928
G1 X195.774 Y136.638 E18.66188
G1 X195.9 Y135.001 E18.74428
G1 X195.9 Y70.9 E21.96124
G1 X204.1 Y70.9 E22.37276
G1 X204.103 Y135.069 E25.59314
G1 X204.248 Y136.772 E25.67892
G1 X204.615 Y138.303 E25.75793
G1 X205.321 Y140.008 E25.85054
G1 X206.224 Y141.46 E25.93635
G1 X207.247 Y142.658 E26.01541
G1 X208.65 Y143.856 E26.108
G1 X210.113 Y144.74 E26.19378
G1 X211.697 Y145.385 E26.27961
G1 X213.362 Y145.774 E26.36542
G1 X214.999 Y145.9 E26.44782
G1 X328.573 Y145.9 E32.14763
G1 X328.573 Y154.1 E32.55915
G1 X214.999 Y154.1 E38.25896
G1 X213.362 Y154.226 E38.34136
G1 X211.697 Y154.615 E38.42717
G1 X209.992 Y155.321 E38.51978
G1 X208.65 Y156.144 E38.59879
G1 X207.342 Y157.247 E38.68466
G1 X206.144 Y158.65 E38.77725
G1 X205.26 Y160.113 E38.86303
G1 X204.672 Y161.532 E38.94012
G1 X204.615 Y161.697 E38.94888
G1 X204.226 Y163.362 E39.03469
G1 X204.1 Y164.999 E39.11709
G1 X204.1 Y229.1 E42.33405
G1 X195.96 Y229.1 E42.74256
G1 X195.555 Y229.445 F7800
G1 F1800
G1 X195.553 Y164.958 E45.9789
G1 X195.417 Y163.309 E46.06194
G1 X195.049 Y161.777 E46.14101
G1 X194.351 Y160.118 E46.23134
G1 X193.514 Y158.764 E46.31123
G1 X192.491 Y157.566 E46.39029
G1 X191.17 Y156.438 E46.47747
G1 X189.755 Y155.578 E46.56057
G1 X188.223 Y154.951 E46.64364
G1 X186.615 Y154.571 E46.72656
G1 X185.001 Y154.445 E46.80781
G1 X71.082 Y154.445 E52.52493
G1 X71.082 Y145.555 E52.97108
G1 X185.001 Y145.555 E58.6882
G1 X186.611 Y145.43 E58.76924
G1 X188.223 Y145.049 E58.85237
G1 X189.827 Y144.385 E58.93949
G1 X191.17 Y143.562 E59.01854
G1 X192.434 Y142.491 E59.10168
G1 X193.562 Y141.17 E59.18886
G1 X194.385 Y139.827 E59.26791
G1 X195.024 Y138.3 E59.35098
G1 X195.429 Y136.615 E59.43795
G1 X195.553 Y135.042 E59.51714
G1 X195.555 Y70.555 E62.75348
G1 X204.445 Y70.555 E63.19963
G1 X204.447 Y135.042 E66.43597
G1 X204.583 Y136.691 E66.51901
G1 X204.951 Y138.223 E66.59808
G1 X205.615 Y139.827 E66.6852
G1 X206.486 Y141.236 E66.76833
G1 X207.509 Y142.434 E66.84739
G1 X208.83 Y143.562 E66.93457
G1 X210.245 Y144.422 E67.01767
G1 X211.777 Y145.049 E67.10074
G1 X213.385 Y145.429 E67.18366
G1 X214.999 Y145.555 E67.26491
G1 X328.918 Y145.555 E72.98203
G1 X328.918 Y154.445 E73.42818
G1 X214.999 Y154.445 E79.1453
G1 X213.389 Y154.57 E79.22634
G1 X211.777 Y154.951 E79.30947
G1 X210.173 Y155.615 E79.39659
G1 X208.83 Y156.438 E79.47564
G1 X207.566 Y157.509 E79.55878
G1 X206.438 Y158.83 E79.64596
G1 X205.578 Y160.245 E79.72906
G1 X204.951 Y161.777 E79.81213
G1 X204.583 Y163.309 E79.8912
G1 X204.447 Y164.958 E79.97424
G1 X204.445 Y229.445 E83.21058
G1 X195.615 Y229.445 E83.65372
G1 X195.21 Y229.79 F7800
;TYPE:External perimeter
G1 F1800
G1 X195.209 Y164.985 E86.90601
G1 X195.082 Y163.39 E86.98631
G1 X194.714 Y161.858 E87.06538
G1 X194.056 Y160.296 E87.15044
G1 X193.252 Y158.988 E87.22749
G1 X192.229 Y157.79 E87.30655
G1 X190.99 Y156.732 E87.38832
G1 X189.623 Y155.897 E87.46871
G1 X188.142 Y155.286 E87.54911
G1 X186.585 Y154.914 E87.62945
G1 X185.001 Y154.79 E87.70919
G1 X70.737 Y154.79 E93.44363
G1 X70.737 Y145.21 E93.92441
G1 X185.001 Y145.21 E99.65885
G1 X186.584 Y145.086 E99.73854
G1 X188.142 Y144.714 E99.81893
G1 X189.647 Y144.091 E99.90068
G1 X190.99 Y143.268 E99.97973
G1 X192.21 Y142.229 E100.06015
G1 X193.268 Y140.99 E100.14192
G1 X194.091 Y139.647 E100.22097
G1 X194.706 Y138.168 E100.30136
G1 X195.086 Y136.585 E100.38306
G1 X195.209 Y135.015 E100.46209
G1 X195.21 Y70.21 E103.71438
G1 X204.79 Y70.21 E104.19516
G1 X204.791 Y135.015 E107.44745
G1 X204.914 Y136.584 E107.52643
G1 X205.286 Y138.142 E107.60682
G1 X205.909 Y139.647 E107.68857
G1 X206.732 Y140.99 E107.76762
G1 X207.771 Y142.21 E107.84804
G1 X209.01 Y143.268 E107.92981
G1 X210.377 Y144.103 E108.0102
G1 X211.858 Y144.714 E108.0906
G1 X213.415 Y145.086 E108.17094
G1 X214.999 Y145.21 E108.25068
G1 X329.263 Y145.21 E113.98512
G1 X329.263 Y154.79 E114.4659
G1 X214.999 Y154.79 E120.20034
G1 X213.416 Y154.914 E120.28003
G1 X211.858 Y155.286 E120.36042
G1 X210.353 Y155.909 E120.44217
G1 X209.01 Y156.732 E120.52122
G1 X207.79 Y157.771 E120.60164
G1 X206.732 Y159.01 E120.68341
G1 X205.898 Y160.374 E120.76365
G1 X205.286 Y161.858 E120.84421
G1 X204.918 Y163.39 E120.92328
G1 X204.791 Y164.985 E121.00358
G1 X204.79 Y229.79 E124.25587
G1 X195.27 Y229.79 E124.73364
G1 X195.23 Y229.39 F7800
G1 E122.73364 F2400
G92 E0
G1 X327.772 Y146.003 F7800
G1 E2 F2400
;TYPE:Solid infill
;WIDTH:0.420201
G1 F1800
G1 X328.314 Y146.546 E2.03853
G1 X328.314 Y147.034 E2.06303
G1 X327.439 Y146.158 E2.1252
G1 X326.951 Y146.158 E2.1497
G1 X328.314 Y147.522 E2.24653
G1 X328.314 Y148.01 E2.27103
G1 X326.463 Y146.158 E2.40251
G1 X325.975 Y146.158 E2.42701
G1 X328.314 Y148.498 E2.59315
G1 X328.314 Y148.986 E2.61765
G1 X325.487 Y146.158 E2.81844
G1 X324.999 Y146.158 E2.84294
G1 X328.314 Y149.474 E3.07839
G1 X328.314 Y149.962 E3.10289
G1 X324.511 Y146.158 E3.373
G1 X324.023 Y146.158 E3.3975
G1 X328.314 Y150.45 E3.70226
G1 X328.314 Y150.938 E3.72676
G1 X323.535 Y146.158 E4.06618
G1 X323.047 Y146.158 E4.09068
G1 X328.314 Y151.426 E4.46475
G1 X328.314 Y151.914 E4.48925
G1 X322.559 Y146.158 E4.89798
G1 X322.071 Y146.158 E4.92248
G1 X328.314 Y152.402 E5.36586
G1 X328.314 Y152.89 E5.39036
G1 X321.583 Y146.158 E5.8684
G1 X321.095 Y146.158 E5.8929
G1 X328.314 Y153.378 E6.40559
G1 X328.314 Y153.842 E6.42889
G1 X328.29 Y153.842 E6.4301
G1 X320.607 Y146.158 E6.97574
G1 X320.119 Y146.158 E7.00024
G1 X327.802 Y153.842 E7.54588
G1 X327.314 Y153.842 E7.57038
G1 X319.631 Y146.158 E8.11602
G1 X319.143 Y146.158 E8.14052
G1 X326.826 Y153.842 E8.68616
G1 X326.338 Y153.842 E8.71066
G1 X318.655 Y146.158 E9.2563
G1 X318.166 Y146.158 E9.28086
G1 X325.85 Y153.842 E9.82654
G1 X325.362 Y153.842 E9.85104
G1 X317.678 Y146.158 E10.39672
G1 X317.19 Y146.158 E10.42122
G1 X324.874 Y153.842 E10.9669
G1 X324.385 Y153.842 E10.99146
G1 X316.702 Y146.158 E11.5371
G1 X316.214 Y146.158 E11.5616
G1 X323.897 Y153.842 E12.10724
G1 X323.409 Y153.842 E12.13174
G1 X315.726 Y146.158 E12.67738
G1 X315.238 Y146.158 E12.70188
G1 X322.921 Y153.842 E13.24752
G1 X322.433 Y153.842 E13.27202
G1 X314.75 Y146.158 E13.81766
G1 X314.262 Y146.158 E13.84216
G1 X321.945 Y153.842 E14.3878
G1 X321.457 Y153.842 E14.4123
G1 X313.774 Y146.158 E14.95794
G1 X313.286 Y146.158 E14.98244
G1 X320.969 Y153.842 E15.52808
G1 X320.481 Y153.842 E15.55258
G1 X312.798 Y146.158 E16.09822
G1 X312.31 Y146.158 E16.12272
G1 X319.993 Y153.842 E16.66836
G1 X319.505 Y153.842 E16.69286
G1 X311.822 Y146.158 E17.2385
G1 X311.334 Y146.158 E17.263
G1 X319.017 Y153.842 E17.80864
G1 X318.529 Y153.842 E17.83314
G1 X310.846 Y146.158 E18.37878
G1 X310.358 Y146.158 E18.40328
G1 X318.041 Y153.842 E18.94892
G1 X317.553 Y153.842 E18.97342
G1 X309.87 Y146.158 E19.51906
G1 X309.382 Y146.158 E19.54356
G1 X317.065 Y153.842 E20.0892
G1 X316.577 Y153.842 E20.1137
G1 X308.894 Y146.158 E20.65934
G1 X308.406 Y146.158 E20.68384
G1 X316.089 Y153.842 E21.22948
G1 X315.601 Y153.842 E21.25398
G1 X307.918 Y146.158 E21.79962
G1 X307.43 Y146.158 E21.82412
G1 X315.113 Y153.842 E22.36976
G1 X314.625 Y153.842 E22.39426
G1 X306.942 Y146.158 E22.9399
G1 X306.454 Y146.158 E22.9644
G1 X314.137 Y153.842 E23.51004
G1 X313.649 Y153.842 E23.53454
G1 X305.966 Y146.158 E24.08018
G1 X305.478 Y146.158 E24.10468
G1 X313.161 Y153.842 E24.65032
G1 X312.673 Y153.842 E24.67482
G1 X304.99 Y146.158 E25.22046
G1 X304.502 Y146.158 E25.24496
G1 X312.185 Y153.842 E25.7906
G1 X311.697 Y153.842 E25.8151
G1 X304.014 Y146.158 E26.36074
G1 X303.526 Y146.158 E26.38524
G1 X311.209 Y153.842 E26.93088
G1 X310.721 Y153.842 E26.95538
G1 X303.038 Y146.158 E27.50102
G1 X302.549 Y146.158 E27.52558
G1 X310.233 Y153.842 E28.07126
G1 X309.745 Y153.842 E28.09576
G1 X302.061 Y146.158 E28.64144
G1 X301.573 Y146.158 E28.66594
G1 X309.257 Y153.842 E29.21162
G1 X308.769 Y153.842 E29.23612
G1 X301.085 Y146.158 E29.7818
G1 X300.597 Y146.158 E29.8063
G1 X308.28 Y153.842 E30.35194
G1 X307.792 Y153.842 E30.37644
G1 X300.109 Y146.158 E30.92208
G1 X299.621 Y146.158 E30.94658
G1 X307.304 Y153.842 E31.49222
G1 X306.816 Y153.842 E31.51672
G1 X299.133 Y146.158 E32.06236
G1 X298.645 Y146.158 E32.08686
G1 X306.328 Y153.842 E32.6325
G1 X305.84 Y153.842 E32.657
G1 X298.157 Y146.158 E33.20264
G1 X297.669 Y146.158 E33.22714
G1 X305.352 Y153.842 E33.77278
G1 X304.864 Y153.842 E33.79728
G1 X297.181 Y146.158 E34.34292
G1 X296.693 Y146.158 E34.36742
G1 X304.376 Y153.842 E34.91306
G1 X303.888 Y153.842 E34.93756
G1 X296.205 Y146.158 E35.4832
G1 X295.717 Y146.158 E35.5077
G1 X303.4 Y153.842 E36.05334
G1 X302.912 Y153.842 E36.07784
G1 X295.229 Y146.158 E36.62348
G1 X294.741 Y146.158 E36.64798
G1 X302.424 Y153.842 E37.19362
G1 X301.936 Y153.842 E37.21812
G1 X294.253 Y146.158 E37.76376
G1 X293.765 Y146.158 E37.78826
G1 X301.448 Y153.842 E38.3339
G1 X300.96 Y153.842 E38.3584
G1 X293.277 Y146.158 E38.90404
G1 X292.789 Y146.158 E38.92854
G1 X300.472 Y153.842 E39.47418
G1 X299.984 Y153.842 E39.49868
G1 X292.301 Y146.158 E40.04432
G1 X291.813 Y146.158 E40.06882
G1 X299.496 Y153.842 E40.61446
G1 X299.008 Y153.842 E40.63896
G1 X291.325 Y146.158 E41.1846
G1 X290.837 Y146.158 E41.2091
G1 X298.52 Y153.842 E41.75474
G1 X298.032 Y153.842 E41.77924
G1 X290.349 Y146.158 E42.32488
G1 X289.861 Y146.158 E42.34938
G1 X297.544 Y153.842 E42.89502
G1 X297.056 Y153.842 E42.91952
G1 X289.373 Y146.158 E43.46516
G1 X288.885 Y146.158 E43.48966
G1 X296.568 Y153.842 E44.0353
G1 X296.08 Y153.842 E44.0598
G1 X288.397 Y146.158 E44.60544
G1 X287.909 Y146.158 E44.62994
G1 X295.592 Y153.842 E45.17558
G1 X295.104 Y153.842 E45.20008
G1 X287.421 Y146.158 E45.74572
G1 X286.932 Y146.158 E45.77028
G1 X294.616 Y153.842 E46.31596
G1 X294.128 Y153.842 E46.34046
G1 X286.444 Y146.158 E46.88614
G1 X285.956 Y146.158 E46.91064
G1 X293.64 Y153.842 E47.45632
G1 X293.152 Y153.842 E47.48082
G1 X285.468 Y146.158 E48.0265
G1 X284.98 Y146.158 E48.051
G1 X292.663 Y153.842 E48.59664
G1 X292.175 Y153.842 E48.62114
G1 X284.492 Y146.158 E49.16678
G1 X284.004 Y146.158 E49.19128
G1 X291.687 Y153.842 E49.73692
G1 X291.199 Y153.842 E49.76142
G1 X283.516 Y146.158 E50.30706
G1 X283.028 Y146.158 E50.33156
G1 X290.711 Y153.842 E50.8772
G1 X290.223 Y153.842 E50.9017
G1 X282.54 Y146.158 E51.44734
G1 X282.052 Y146.158 E51.47184
G1 X289.735 Y153.842 E52.01748
G1 X289.247 Y153.842 E52.04198
G1 X281.564 Y146.158 E52.58762
G1 X281.076 Y146.158 E52.61212
G1 X288.759 Y153.842 E53.15776
G1 X288.271 Y153.842 E53.18226
G1 X280.588 Y146.158 E53.7279
G1 X280.1 Y146.158 E53.7524
G1 X287.783 Y153.842 E54.29804
G1 X287.295 Y153.842 E54.32254
G1 X279.612 Y146.158 E54.86818
G1 X279.124 Y146.158 E54.89268
G1 X286.807 Y153.842 E55.43832
G1 X286.319 Y153.842 E55.46282
G1 X278.636 Y146.158 E56.00846
G1 X278.148 Y146.158 E56.03296
G1 X285.831 Y153.842 E56.5786
G1 X285.343 Y153.842 E56.6031
G1 X277.66 Y146.158 E57.14874
G1 X277.172 Y146.158 E57.17324
G1 X284.855 Y153.842 E57.71888
G1 X284.367 Y153.842 E57.74338
G1 X276.684 Y146.158 E58.28902
G1 X276.196 Y146.158 E58.31352
G1 X283.879 Y153.842 E58.85916
G1 X283.391 Y153.842 E58.88366
G1 X275.708 Y146.158 E59.4293
G1 X275.22 Y146.158 E59.4538
G1 X282.903 Y153.842 E59.99944
G1 X282.415 Y153.842 E60.02394
G1 X274.732 Y146.158 E60.56958
G1 X274.244 Y146.158 E60.59408
G1 X281.927 Y153.842 E61.13972
G1 X281.439 Y153.842 E61.16422
G1 X273.756 Y146.158 E61.70986
G1 X273.268 Y146.158 E61.73436
G1 X280.951 Y153.842 E62.28
G1 X280.463 Y153.842 E62.3045
G1 X272.78 Y146.158 E62.85014
G1 X272.292 Y146.158 E62.87464
G1 X279.975 Y153.842 E63.42028
G1 X279.487 Y153.842 E63.44478
G1 X271.804 Y146.158 E63.99042
G1 X271.316 Y146.158 E64.01492
G1 X278.999 Y153.842 E64.56056
G1 X278.511 Y153.842 E64.58506
G1 X270.827 Y146.158 E65.13074
G1 X270.339 Y146.158 E65.15524
G1 X278.023 Y153.842 E65.70092
G1 X277.535 Y153.842 E65.72542
G1 X269.851 Y146.158 E66.2711
G1 X269.363 Y146.158 E66.2956
G1 X277.046 Y153.842 E66.84124
G1 X276.558 Y153.842 E66.86574
G1 X268.875 Y146.158 E67.41138
